packages/web-icons/svgs/myridi.svg

<svg viewBox="0 0 49 47" xmlns="http://www.w3.org/2000/svg" class="ridi_icon"><path d="M27.8 32.1l.4.7.4-.8.6-1.3h6.6c-.7-.6-1.5-1.2-2.3-1.7-.9-.5-1.9-1-3-1.4-2.1-.8-4.5-1.8-5-3.4-.3-1 .1-2.5 1.3-4.3 3.6-5.8 4.2-10.8 1.9-14.8-1.8-3.1-4.9-5-8.3-5-3.4 0-6.5 1.9-8.3 5-2.3 4-1.7 9 1.9 14.8 1.2 1.8 1.6 3.2 1.3 4.3-.5 1.6-2.9 2.5-5 3.4-1.2.5-2.2.9-3.1 1.4-3.1 2-5.3 4.2-6.2 8.2-.2.7.3 1.4 1 1.6.2 0 4.2 1.2 15.2 1.4l1.3-7.7.3-1.8h8.3l.7 1.4zm3.1 1.8l-2.8 6.9-2.6-6.9h-3.3L20 46.8h3.3l1.1-7.4 2.9 7.4h1.3l3.1-7.4.9 7.4h3.3L34 33.9h-3.1zm14 0l-2.4 3.5-2.4-3.5h-4l4.7 6.7v6.2h3.3v-6.2l4.7-6.7h-3.9z"/></svg>

<?xml version="1.0" encoding="UTF-8"?>
<svg width="49px" height="47px" viewBox="0 0 49 47" version="1.1" xmlns="http://www.w3.org/2000/svg">
  <!-- Generator: Sketch 41.2 (35397) - http://www.bohemiancoding.com/sketch -->
  <title>myridi</title>
  <desc>Created with Sketch.</desc>
  <defs></defs>
  <g id="Page-1" stroke="none" stroke-width="1" fill="none" fill-rule="evenodd">
    <g id="myridi" fill="#000000">
      <g id="Layer_1">
        <path d="M27.8,32.1 L28.2,32.8 L28.6,32 L29.2,30.7 L35.8,30.7 C35.1,30.1 34.3,29.5 33.5,29 C32.6,28.5 31.6,28 30.5,27.6 C28.4,26.8 26,25.8 25.5,24.2 C25.2,23.2 25.6,21.7 26.8,19.9 C30.4,14.1 31,9.1 28.7,5.1 C26.9,2 23.8,0.1 20.4,0.1 C17,0.1 13.9,2 12.1,5.1 C9.8,9.1 10.4,14.1 14,19.9 C15.2,21.7 15.6,23.1 15.3,24.2 C14.8,25.8 12.4,26.7 10.3,27.6 C9.1,28.1 8.1,28.5 7.2,29 C4.1,31 1.9,33.2 1,37.2 C0.8,37.9 1.3,38.6 2,38.8 C2.2,38.8 6.2,40 17.2,40.2 L18.5,32.5 L18.8,30.7 L27.1,30.7 L27.8,32.1 L27.8,32.1 L27.8,32.1 Z M30.9,33.9 L28.1,40.8 L25.5,33.9 L22.2,33.9 L20,46.8 L23.3,46.8 L24.4,39.4 L24.4,39.4 L27.3,46.8 L28.6,46.8 L31.7,39.4 L31.7,39.4 L32.6,46.8 L35.9,46.8 L34,33.9 L30.9,33.9 L30.9,33.9 Z M44.9,33.9 L42.5,37.4 L40.1,33.9 L36.1,33.9 L40.8,40.6 L40.8,46.8 L44.1,46.8 L44.1,40.6 L48.8,33.9 L44.9,33.9 L44.9,33.9 Z" id="Shape"></path>
      </g>
    </g>
  </g>
</svg>
